src/images/icon/icon_label_private.svg

<svg height="20" viewBox="0 0 20 20" width="20" xmlns="http://www.w3.org/2000/svg"><g fill="none"><path d="m15.4506111 8.30399999c.5412815 0 .9863052.4067297 1.043236.92926966l.0061529.11363943v7.60945452c0 .5382788-.4089383.9808938-.9338053 1.0375168l-.1141391.0061196h-10.90266671c-.54128149 0-.98630519-.4067297-1.04323598-.9298609l-.00615291-.1137755v-7.60945452c0-.5376.40893827-.98016969.93497969-1.03678965l.1144092-.00611944zm-5.4506111 2.15822021c-.82842712 0-1.5.6715729-1.5 1.5 0 .5015765.24618344.9456537.62431026 1.2179917l.11728211.076435.00047306 1.9829905c0 .4142135.33578644.75.75.75.37969577 0 .69349097-.2821539.74315337-.6482295l.0068466-.1017705.001342-1.9742991c.4519841-.2584057.7565926-.7451893.7565926-1.3031181 0-.8284271-.6715729-1.5-1.5-1.5z" fill="#ffac52"/><path d="m10 2c2.2725926 0 4.1322836 1.7800965 4.2429053 4.01003007l.0052058.21033356-.0001111.58263637h-1.63l.0000556-.51354545c0-1.37832168-1.0850695-2.51121572-2.4513581-2.59632247l-.1652531-.00513208c-1.38749994 0-2.52727025 1.07988166-2.61289237 2.43728535l-.00516314.1641692-.00038889.51354545h-1.632l.00016667-.58263637c0-2.25674931 1.79150373-4.10523215 4.03702627-4.2151891z" fill="#ffcd98"/></g></svg>

<?xml version="1.0" encoding="UTF-8"?>
<svg width="20px" height="20px" viewBox="0 0 20 20" version="1.1" xmlns="http://www.w3.org/2000/svg" xmlns:xlink="http://www.w3.org/1999/xlink">
    
    <g id="Dashboard" stroke="none" stroke-width="1" fill="none" fill-rule="evenodd">
        <g id="00-切图" transform="translate(-1139.000000, -299.000000)" fill-rule="nonzero">
            <g id="编组-23备份" transform="translate(1139.000000, 299.000000)">
                <path d="M15.4506111,8.30399999 C15.9918926,8.30399999 16.4369163,8.71072969 16.4938471,9.23326965 L16.5,9.34690908 L16.5,16.9563636 C16.5,17.4946424 16.0910617,17.9372574 15.5661947,17.9938804 L15.4520556,18 L4.54938889,18 C4.0081074,18 3.5630837,17.5932703 3.50615291,17.0701391 L3.5,16.9563636 L3.5,9.34690908 C3.5,8.80930908 3.90893827,8.36673939 4.43497969,8.31011943 L4.54938889,8.30399999 L15.4506111,8.30399999 Z M10,10.4622202 C9.17157288,10.4622202 8.5,11.1337931 8.5,11.9622202 C8.5,12.4637967 8.74618344,12.9078739 9.12431026,13.1802119 L9.24159237,13.2566469 L9.24206543,15.2396374 C9.24206543,15.6538509 9.57785187,15.9896374 9.99206543,15.9896374 C10.3717612,15.9896374 10.6855564,15.7074835 10.7352188,15.3414079 L10.7420654,15.2396374 L10.7434074,13.2653383 C11.1953915,13.0069326 11.5,12.520149 11.5,11.9622202 C11.5,11.1337931 10.8284271,10.4622202 10,10.4622202 Z" id="形状" fill="#FFAC52"></path>
                <path d="M10,2 C12.2725926,2 14.1322836,3.7800965 14.2429053,6.01003007 L14.2481111,6.22036363 L14.248,6.803 L12.618,6.803 L12.6180556,6.28945455 C12.6180556,4.91113287 11.5329861,3.77823883 10.1666975,3.69313208 L10.0014444,3.688 C8.61394446,3.688 7.47417415,4.76788166 7.38855203,6.12528535 L7.38338889,6.28945455 L7.383,6.803 L5.751,6.803 L5.75116667,6.22036363 C5.75116667,3.96361432 7.5426704,2.11513148 9.78819294,2.00517453 L10,2 Z" id="路径" fill="#FFCD98"></path>
            </g>
        </g>
    </g>
</svg>
